X: 1
T: Tr\onderpolska
O: Sweden
Z: John Chambers <jc@trillian.mit.edu>
M: 3/4
L: 1/8
K: Dm
a2 \
|: "A7"a>g e>f g>e | "Dm"f>{gf}e d>e f>d | "A7"e>^c A>c e>c |1,3 "Dm"d>e f>g a>b :|2,4 "Dm"dz d2 z2 :|
K: D
(3ABA \
|: "D"D>F A>d f>a | "Em"g2 f2 e>d | "A7"e>c A>c e>c |1,3 "D"d>A F>G A>F :|2,4 "D"dz d2 z2 :|

%%sep 1 1 500

